X:2173
T:Hämnden
R:Polska
O:Gotland
C:Jan Ekedahl
N:Låten är en del i dramat [[http://www.sjelvar.com/volund.html|Volund]]. Detta är originaltonarten.
M:3/4
L:1/8
K:Dm
|: "Dm"A>A Ad "C"cG | "Dm"A>F FA "C"GE | "Dm"F>E D/2E/2F/2G/2 AF | "C"E/2D/2E/2F/2 G/2A/2G/2F/2 EC |
"Dm"A>A Ad "C"cG | "Dm"A>F FA "C"GE | "Dm"F>E D/2E/2F/2G/2 AF | "C"ED/2C/2 "Dm"D2 :|
|:"C"G>F EC EG | "Bb"F/2E/2D/2C/2 D/2E/2F/2G/2 Az | "Dm"A,/2D/2F/2D/2 A,/2D/2F/2D/2 A,/2D/2F/2D/2 | "C"C/2E/2G/2E/2 C/2E/2G/2E/2 C/2E/2G/2E/2 | 
"Bb"B,/2D/2F/2D/2 B,/2D/2F/2D/2 B,/2D/2F/2D/2 | "Am"E/2D/2E/2F/2 G/2A/2G/2F/2 EC | "Dm"A>d dd ef | "Gm"gf/2e/2 fe/2d/2 "Am"ed/2c/2 |
"Bb"d/2c/2B/2A/2 G/2F/2E/2D/2 "C"C/2D/2E/2C/2 | "Dm"D2 D4 :|
(:musicend:)
(:music:)
